X: 374
T: The Marquis of Tullybardine
C:
O:Scotland
B:Keith Norman MacDonald : "The Skye collection of the best reels & strathspeys extant" : 1887
Z:Ralph Palmer
R:Reel
M:C
L:1/8
K:A
c !segno!| A/2A/2A {/d}cA eAAf | eAAa fe{/d}dc | Bcde fBBg | aBBa gfea |
!mf! A/2A/2A {/d}cA eAAf | eAAa fedc | defa fecf | ecBc !f!Tf2 e ||
!p! g | aA A/2A/2A {/d}cAAg | aAAa fe{/e}dc | bB B/2B/2B dBB^a | bBB=a gfeg |
!f! aA A/2A/2A {/d}cAAg | aAAa fedc | defa fecf | ecBd Tf2 ea !segno!|]


